X: 115
T: No_73_The_Heavens_Help_You.krn
N: Derived from No_73_The_Heavens_Help_You.krn
%%abc-version 2.0
%%abcx-abcm2ps-target-version 5.9.1 (29 Sep 2008)
%%abc-creator hum2abc beta
%%abcx-conversion-date 2019/03/15 08:35:45
%%humdrum-veritas 2891277668
%%humdrum-veritas-data 3791550125
%%linebreak <none>
%%barnumbers 0
L: 1/16
M: 2/4
K: Bb clef=bass
[K:clef=bass][M:2/4]z4C2C2 | 
C3DC4 ||  
[M:3/4]C4B,3G, G, z B,B, ||  
[M:2/4]B,3G,G,4 ||  
[M:3/4]G,4G,3G, G,3G, | 
G,8z2 CC ||  
[M:2/4]C3CC4 ||  
[M:3/4]C4B,3G, G, z B,B, ||  
[M:2/4]B,3G,G,4 ||  
[M:3/4]G,4G,3G, G,3G, | 
G,8z4 | 
(3B,2G,2G,2B,4(3B,2G,2F,2 ||  
[M:2/4]E,3E,C,4 | 
(3E,2C,2C,2 D,3C, | 
D,3C, C,3C, ||  
[M:3/4]C,8C, z E,C, ||  
[M:2/4]C,3D,C,4 ||  
[M:3/4]C,4B,,3G,, G,, z B,,B,, ||  
[M:2/4]B,,3G,,G,,4 | 
G,,4G,,3G,, | 
G,,8 |]  



